X: 1557
T: the Greencastle Hornpipe   #2
%T: crannciuil caislean-glais.
R: hornpipe
%S: s:2 b:14(7+7)
B: O'Neill's 1850 #1557
O: F.O'Neill
Z: Michael Hogan
M: C|
L: 1/8
K: G
"^A"[|] (dc) |\
BGDG BGDG | (3(gag) fg e2(dc) |1 BGDG BGDG | dcBc A2 :|2 Bdfe dcAF | G2GG G2 "^B":: (ga) | bagf efga |
| bagf e2(fg) | agfe defg | agfe d2 (3(def) || gfgd e2d2 | {d}cBAB cdef | gfgd ecAF | G2GG G2 :|
